public/MobilePreview/tel.svg

<svg width="14" height="14" viewBox="0 0 14 14" fill="none" xmlns="http://www.w3.org/2000/svg">
<path d="M11.9601 7.66668C11.8134 7.66668 11.6601 7.62001 11.5134 7.58668C11.2164 7.52123 10.9245 7.43434 10.6401 7.32668C10.3308 7.21417 9.99083 7.22001 9.68561 7.34309C9.38038 7.46616 9.13146 7.69777 8.98673 7.99335L8.84007 8.29335C8.19074 7.93213 7.59406 7.4835 7.06673 6.96001C6.54325 6.43269 6.09462 5.83601 5.7334 5.18668L6.0134 5.00001C6.30898 4.85529 6.54059 4.60637 6.66366 4.30114C6.78674 3.99592 6.79258 3.65596 6.68007 3.34668C6.57422 3.06163 6.48736 2.76988 6.42007 2.47335C6.38673 2.32668 6.36007 2.17335 6.34007 2.02001C6.25911 1.55043 6.01315 1.12518 5.64648 0.82084C5.27981 0.516505 4.81653 0.353086 4.34007 0.360014H2.34007C2.05275 0.357316 1.76823 0.416556 1.50587 0.533701C1.24351 0.650845 1.00947 0.823144 0.819688 1.03887C0.629901 1.25459 0.488824 1.50868 0.406059 1.78382C0.323295 2.05897 0.300787 2.34872 0.340067 2.63335C0.695226 5.42627 1.97075 8.02127 3.96517 10.0084C5.95958 11.9956 8.55921 13.2617 11.3534 13.6067H11.6067C12.0983 13.6074 12.573 13.427 12.9401 13.1C13.151 12.9114 13.3195 12.6801 13.4344 12.4216C13.5493 12.163 13.608 11.883 13.6067 11.6V9.60001C13.5986 9.13694 13.4299 8.69105 13.1296 8.33846C12.8293 7.98587 12.4159 7.74843 11.9601 7.66668V7.66668ZM12.2934 11.6667C12.2933 11.7613 12.273 11.8549 12.2339 11.9411C12.1948 12.0273 12.1378 12.1042 12.0667 12.1667C11.9922 12.231 11.9051 12.279 11.811 12.3077C11.7169 12.3364 11.6178 12.3452 11.5201 12.3333C9.02333 12.0132 6.70422 10.871 4.92854 9.08687C3.15286 7.30274 2.02167 4.97824 1.7134 2.48001C1.70279 2.38236 1.71209 2.28357 1.74074 2.18961C1.76938 2.09565 1.81678 2.00847 1.88007 1.93335C1.94254 1.86223 2.01944 1.80524 2.10565 1.76616C2.19186 1.72708 2.28541 1.7068 2.38007 1.70668H4.38007C4.5351 1.70323 4.68648 1.75393 4.80816 1.85006C4.92984 1.94619 5.01421 2.08173 5.04673 2.23335C5.0734 2.41557 5.10673 2.59557 5.14673 2.77335C5.22375 3.12478 5.32624 3.47013 5.4534 3.80668L4.52007 4.24001C4.44027 4.27663 4.36848 4.32864 4.30884 4.39308C4.2492 4.45751 4.20287 4.53309 4.17251 4.61548C4.14216 4.69786 4.12838 4.78543 4.13197 4.87316C4.13555 4.96089 4.15643 5.04704 4.1934 5.12668C5.15287 7.18185 6.8049 8.83388 8.86007 9.79335C9.02238 9.86003 9.20443 9.86003 9.36673 9.79335C9.44988 9.76361 9.52628 9.71765 9.59151 9.65814C9.65675 9.59863 9.70951 9.52675 9.74673 9.44668L10.1601 8.51335C10.5047 8.6366 10.8565 8.73901 11.2134 8.82001C11.3912 8.86001 11.5712 8.89335 11.7534 8.92001C11.905 8.95254 12.0406 9.0369 12.1367 9.15858C12.2328 9.28027 12.2835 9.43165 12.2801 9.58668L12.2934 11.6667Z" fill="#1B1B1B"/>
</svg>

<svg xmlns="http://www.w3.org/2000/svg" width="14" height="14" fill="none"><path fill="#1B1B1B" d="M11.96 7.667c-.147 0-.3-.047-.447-.08a6.29 6.29 0 0 1-.873-.26 1.333 1.333 0 0 0-1.653.666l-.147.3A8.12 8.12 0 0 1 7.067 6.96a8.12 8.12 0 0 1-1.334-1.773L6.013 5a1.333 1.333 0 0 0 .667-1.653 6.887 6.887 0 0 1-.26-.874c-.033-.146-.06-.3-.08-.453a2 2 0 0 0-2-1.66h-2a2 2 0 0 0-2 2.273 12.666 12.666 0 0 0 11.013 10.974h.254a2 2 0 0 0 1.827-1.185 2 2 0 0 0 .173-.822v-2a2 2 0 0 0-1.647-1.933Zm.333 4a.666.666 0 0 1-.482.64.705.705 0 0 1-.29.026A11.333 11.333 0 0 1 1.712 2.48a.727.727 0 0 1 .167-.547.666.666 0 0 1 .5-.226h2a.667.667 0 0 1 .667.526 7.414 7.414 0 0 0 .407 1.573l-.934.434a.667.667 0 0 0-.327.887A9.66 9.66 0 0 0 8.86 9.793a.667.667 0 0 0 .507 0 .667.667 0 0 0 .38-.346l.413-.934c.345.124.697.226 1.053.307.178.04.358.073.54.1a.667.667 0 0 1 .527.667l.013 2.08Z"/></svg>
